!!!!SEGMENT: pl-wtm--r-96-m_moniuszko-stanislaw--aniol-dziecina.krn
!!!cenid: 18xx:2968
!!!COM: Moniuszko, Stanisław
!!!COM-rismID: pe30008351
!!!CDT: 1819/05/05-1872/06/04
!!!CNT: Polish
!!!OTL: Anioł dziecina
!!!PDT: 1862
!!!AGN: Secular
!!!YEC: Copyright 2022 Narodowy Instytut Fryderyka Chopina (https://polishscores.org)
!!!YEM: License CC-BY-4.0 (https://creativecommons.org/licenses/by/4.0)
!!!SMS-siglum: PL-Wtm
!!!SMS-shelfmark: R 96/M
!!!SMS-shelfwork: W
!!!SMS-variant:
!!!SMS-altvar:
!!!NIFC-rismSourceID: 1001083916
!!!NIFC-rismChildID: 1001083916
!!!NIFC-islandoraID:
!!!URL-pdf-islandora:
!!!URL-scan:
!!!IIIF:
!!!ONB-nifc:
!!!OMD: Andantino.
!!!AIN: 1 empty 1 piano 1 vox
!!!key:
**kern	**kern	**dynam	**kern	**text	**text	**dynam
*group2	*group2	*	*group1	*	*	*
*part3	*part2	*	*part1	*	*	*
*staff3	*staff2	*	*staff1	*	*	*
*Iempty	*Ipiano	*	*Ivox	*	*	*
*	*I"[Piano]	*	*I"[Voce]	*	*	*
*clefF4	*clefG2	*	*clefG2	*	*	*
*k[b-e-]	*k[b-e-]	*	*k[b-e-]	*	*	*
*B-:	*B-:	*	*B-:	*	*	*
*M6/8	*M6/8	*	*M6/8	*	*	*
*>[A,A1,A,A2,B]	*>[A,A1,A,A2,B]	*	*>[A,A1,A,A2,B]	*	*	*
=1	=1	=1	=1	=1	=1	=1
*^	*	*	*	*	*	*
*>A	*>A	*>A	*	*>A	*	*	*
*all\right	*all\right	*all\right	*	*all\right	*	*	*
!LO:TX:t=P:problem=all\right&colon; global	!LO:TX:t=P:problem=all\right&colon; global	!LO:TX:t=P:problem=all\right&colon; global	!	!LO:TX:t=P:problem=all\right&colon; global	!	!	!
4BB-/	(>8BB-\L	2.r	p	2.ryy	.	.	.
.	8B-\	.	.	.	.	.	.
8ryy	8F\J)	.	.	.	.	.	.
*rep	*rep	*	*	*	*	*	*
4BB-/	(>8BB-\L	.	.	.	.	.	.
.	8B-\	.	.	.	.	.	.
8ryy	8F\J)	.	.	.	.	.	.
*Xrep	*Xrep	*	*	*	*	*	*
=2	=2	=2	=2	=2	=2	=2	=2
*rep	*rep	*	*	*	*	*	*
4BB-/	(>8BB-\L	2.r	.	4r	.	.	.
.	8B-\	.	.	.	.	.	.
8ryy	8F\J)	.	.	8r	.	.	.
4BB-/	(>8BB-\L	.	.	4r	.	.	.
.	8B-\	.	.	.	.	.	.
8ryy	8F\J)	.	.	8f/	Spo-	Po-	.
*Xrep	*Xrep	*	*	*	*	*	*
=3!|:	=3!|:	=3!|:	=3!|:	=3!|:	=3!|:	=3!|:	=3!|:
*rep	*rep	*	*	*	*	*	*
4BB-/	(>8BB-\L	(>2.d/ 2.f/	.	4.b-/	-koj-	-łu-	.
.	8B-\	.	.	.	.	.	.
8ryy	8F\J)	.	.	.	.	.	.
4BB-/	(>8BB-\L	.	.	8a/	-ne	-dnie,	.
.	8B-\	.	.	8r	.	.	.
8ryy	8F\J)	.	.	8g/	ma	żar	.
*Xrep	*Xrep	*	*	*	*	*	*
=4	=4	=4	=4	=4	=4	=4	=4
*	*	*^	*	*	*	*	*
*rep	*rep	*	*2\right	*	*	*	*	*
4BB-/	(>8BB-\L	4.g/	2.d\	.	4.g/	czo-	zie-	.
.	8B-\	.	.	.	.	.	.	.
8ryy	8F\J)	.	.	.	.	.	.	.
4BB-/	(>8BB-\L	4.f/)	.	.	8f/	-ło,	-je,	.
.	8B-\	.	.	.	8r	.	.	.
8ryy	8F\J)	.	.	.	8f/	znów	ni	.
*Xrep	*Xrep	*	*	*	*	*	*	*
*	*	*v	*v	*	*	*	*	*
!!LO:LB:g=original
=5	=5	=5	=5	=5	=5	=5	=5
4.BB-/	(>8BB-\L	(>2.e-/ 2.f/	.	8f/	ma-	ro-	.
.	8A\	.	.	8en/	-rzy	-sa	.
.	8F\J)	.	.	8f/	we-	ja-	.
*rep	*rep	*	*	*	*	*	*
4.BB-/	8BB-\L	.	.	8a/	-so-	-śnie-	.
.	8A\	.	.	8g/	-lo	-je	.
.	8F\J	.	.	8f/	z u-	rzeź-	.
*Xrep	*Xrep	*	*	*	*	*	*
=6	=6	=6	=6	=6	=6	=6	=6
*	*	*^	*	*	*	*	*
*rep	*rep	*	*	*	*	*	*	*
4.BB-/	8BB-\L	4.cc/	2.e-\	.	4.f/	-śmie-	-wią-	.
.	8A\	.	.	.	.	.	.	.
.	8F\J	.	.	.	.	.	.	.
4.BB-/	8BB-\L	4.f/)	.	.	8f/	-chem,	-ca,	.
.	8A\	.	.	.	8r	.	.	.
.	8F\J	.	.	.	8f/	u-	ni	.
*Xrep	*Xrep	*	*	*	*	*	*	*
*v	*v	*	*	*	*	*	*	*
=7	=7	=7	=7	=7	=7	=7	=7
2.ryy	(>4.b-/	2.d\	.	4.b-/	-ste-	chmur-	.
.	4.a/	.	.	4a/	-czek	-ka	.
.	.	.	.	8d/	ró-	za-	.
=8	=8	=8	=8	=8	=8	=8	=8
2.ryy	4.g/	2.d\	.	4.g/	-ża-	-kry-	.
.	8f/)	.	.	8f/	-nych,	-wa	.
.	8re	.	.	8r	.	.	.
.	8re	.	.	8f/	che-	pro-	.
!!LO:LB:g=original
=9	=9	=9	=9	=9	=9	=9	=9
!!mixed beam:problem
!	!LO:TX:t=P:problem=mixed beam	!	!	!	!	!	!
2.GG/	2.en/	(>8d\L	.	8en/	-ru-	-mie-	.
.	.	8B-</	.	8f/	-ba	-nia	.
.	.	8G</J)	.	8e/	o-	co	.
!!mixed beam:problem
!	!LO:TX:t=P:problem=mixed beam	!	!	!	!	!	!
.	.	(>8c#X\L	.	8g/	-wia-	spy-	.
.	.	8B-</	.	8f/	-nych	-wa	.
.	.	8G</J)	.	8e/	od-	ze	.
=10	=10	=10	=10	=10	=10	=10	=10
*^	*	*	*	*	*	*	*
!!mixed beam:problem
!LO:TX:t=P:problem=mixed beam	!	!	!	!	!	!	!	!
(<8D/L	4.FF#X\	4.d/	(>8d\L	.	(>4.a/	-de-	słoń-	.
8E-/	.	.	8c\	.	.	.	.	.
8D/)	.	.	8A\J)	.	.	.	.	.
(>8c>\	(>8FF#\L	4.d/	4ryy	.	8d/)	-chem.	-ca.	.
8B->\	8D\	.	.	.	8r	.	.	.
8A/J)	8A\J)	.	8ryy	.	8d/	A	Na	.
*v	*v	*	*	*	*	*	*	*
*	*v	*v	*	*	*	*	*
=11	=11	=11	=11	=11	=11	=11
(>4GG/	(<8B-/L 8d	.	8d/	ma-	ła-	.
.	8G/J)	.	8e-/	-tka	-nu	.
8D\)	8r	.	8d/	schy-	prze-	.
*rep	*rep	*	*	*	*	*
(>4GG/	(<8B-/L 8d	.	8g/	-lo-	-strze-	.
.	8G/J)	.	8a/	-na	-ni,	.
8D\)	8r	.	8b-/	po-	żni-	.
*Xrep	*Xrep	*	*	*	*	*
=12	=12	=12	=12	=12	=12	=12
*rep	*rep	*	*	*	*	*
(>4GG/	(<8B-/L 8d	.	4.a/	-śpie-	-wia-	.
.	8G/J)	.	.	.	.	.
8D\)	8r	.	.	.	.	.
(>4GG/	(<8B-/L 8d	.	8g/	-sza	-rze	.
.	8G/J)	.	8r	.	.	.
8D\)	8r	.	8a/	z za-	znu-	.
*Xrep	*Xrep	*	*	*	*	*
!!LO:LB:g=original
=13	=13	=13	=13	=13	=13	=13
(>4GG/	(<8c/L 8e-/	.	(>4cc\	-go-	-że-	.
.	8G/J)	.	.	.	.	.
8G\)	8r	.	8b-\)	.	.	.
*rep	*rep	*	*	*	*	*
(>4GG/	(<8c/L 8e-	.	8b-/L	-na	-ni,	.
.	8G/J)	.	8a/J	.	.	.
8G\)	8r	.	8g/	do-	sier-	.
*Xrep	*Xrep	*	*	*	*	*
=14	=14	=14	=14	=14	=14	=14
(>4GG/	(<8B-/L 8d/	.	[>4.dd\	-żę-	-pa-	.
.	8G/J)	.	.	.	.	.
8D\)	8r	.	.	.	.	.
(>4GG/	(<8B-/L 8g/	.	4dd\]	.	.	.
.	8d/J)	.	.	.	.	.
8G\)	8r	.	8d/	-ciem,	-mi	.
=15	=15	=15	=15	=15	=15	=15
*	*^	*	*	*	*	*
!	!	!LO:TX:t=P:problem=4\left&colon; global	!	!	!	!	!
(>8GG\L	(>4g/	4.B-\	.	4g/	już	już	.
8D\)	.	.	.	.	.	.	.
8G'>\J	8d/	.	.	8d/	jej	sci-	.
*rep	*	*	*	*	*	*	*
(>8GG\L	4b-/	4d\	.	4b-/	trud	-na-	.
8D\)	.	.	.	.	.	.	.
*	*	*Xtuplet	*	*	*	*	*
!	!	!LO:TX:t=P:problem=24\left&colon; global	!	!LO:TUP:b	!	!	!
8G'>\J	8a/)	24c\LL	.	24a/LL	nie	-ją	.
.	.	24d\	.	24b-/	.	.	.
.	.	24c\JJ	.	24a/JJ	.	.	.
*Xrep	*	*	*	*	*	*	*
*	*v	*v	*	*	*	*	*
=16	=16	=16	=16	=16	=16	=16
N(>8GG/L	4.B-/ 4.g/	.	4.g/	nu-	skło-	.
8D/	.	.	.	.	.	.
8G/J	.	.	.	.	.	.
4ryy	8B-\L	.	8g/	-ży.	-sy	.
.	8d\	.	8r	.	.	.
8ryy	8g\JN)	.	8a/	"Po	i	.
!!LO:LB:g=original
=17	=17	=17	=17	=17	=17	=17
*	*^	*	*	*	*	*
(<8GG/L	4.B-^</ 4.en	4.ryy	.	8.cc\	" piesz-	kła-	.
8C/	.	.	.	.	.	.	.
.	.	.	.	16b-\	-czę	-dą	.
8G/J)	.	.	.	8b-\	się	w po-	.
!LO:TX:t=P:problem=4\left&colon; global	!	!LO:TX:t=P:problem=8\left&colon; global	!	!	!	!	!
4.C\	4.e/	(>8d^<\L	.	8b-/	dłu-	-ko-	.
.	.	8c\	.	8a/	-żej	-sy	.
.	.	8B-\J)	.	8g/	z dzie-	bruz-	.
*	*v	*v	*	*	*	*	*
=18	=18	=18	=18	=18	=18	=18
*ped	*	*	*	*	*	*
4AA\ 4F	8c/ 8e-X/	.	8g/	-cię-	-da-	.
!	!LO:TX:t=P:pp[ianissimo]=pp.:problem	!	!	!	!	!
.	8ccc'>\L 8eee-\	pp	8f/	-ciem!"	-mi	.
8r	8aa'>\J 8ccc\	.	8r	.	.	.
!	!LO:TX:t=P:problem=8\right&colon; global	!	!	!	!	!
4r	8ff'>\L 8aa\	.	4r	.	.	.
.	8ee-'>\ 8ff\	.	.	.	.	.
8r	8cc'>\J 8ee-\	.	8r	.	.	.
=19	=19	=19	=19	=19	=19	=19
2.r	8a'</L 8cc/	.	4r	.	.	.
.	8f'</ 8a/	.	.	.	.	.
.	8e-'</J 8f/	.	8r	.	.	.
.	8c'</L 8e-/	.	4r	.	.	.
.	8A<'</ 8c/	.	.	.	.	.
*Xped	*	*	*	*	*	*
.	8F<'</J 8f/	.	8f/	Za-	Na	.
=20	=20	=20	=20	=20	=20	=20
*ped	*	*	*	*	*	*
8BB-'>\L	8d'/ 8f/	pp	4.b-/	-go-	mie-	.
!	!LO:TX:b:t=legieriſsimo	!	!	!	!	!
8F'>\	(<16g'</LL	.	.	.	.	.
.	16a'</	.	.	.	.	.
*Xped	*	*	*	*	*	*
8B-'>\J	16b-'</	.	.	.	.	.
.	16cc'</JJ	.	.	.	.	.
*rep	*	*	*	*	*	*
8BB-'>\L	8dd'</L)	.	4a/	-na	-dzy	.
8F'>\	(16cc'</L	.	.	.	.	.
.	16b-'</	.	.	.	.	.
8B-'>\J	16a'</	.	8d/	do-	zie-	.
.	16g'</JJ)	.	.	.	.	.
*Xrep	*	*	*	*	*	*
!!LO:PB:g=original
=21	=21	=21	=21	=21	=21	=21
*^	*	*	*	*	*	*
!	!LO:TX:t=P:problem=4\right&colon; global	!	!	!	!	!	!
*ped	*	*	*	*	*	*	*
(<8BB-/L	4.BB-\	8f/	.	4.g/	-żę-	-lo-	.
!	!	!LO:TX:t=P:problem=8\right&colon; global	!	!	!	!	!
8F/)	.	8b-'>\L 8dd\ 8gg\	.	.	.	.	.
8B-/J	.	8b-'>\J 8dd\ 8ff\	.	.	.	.	.
*rep	*rep	*	*	*	*	*	*
(<8BB-/L	4.BB-\	8f'</L 8b-/ 8dd/	.	8f/	-ła,	-nej	.
8F/)	.	8d'</ 8f/ 8b-/	.	8r	.	.	.
*Xped	*	*	*	*	*	*	*
8B-/J	.	8d'</J 8g/	.	8f/	sierp	w pła-	.
*Xrep	*Xrep	*	*	*	*	*	*
=22	=22	=22	=22	=22	=22	=22	=22
*ped	*	*	*	*	*	*	*
(<8BB-/L	4.BB-\	8c/ 8e- 8f	.	8.f/	w bru-	-chet-	.
8F/	.	(<16f/LL	.	.	.	.	.
.	.	16cc/	.	16en/	-zdę	-ce	.
8A/J)	.	16ee-/	.	8f/	rzu-	u-	.
*Xped	*	*	*	*	*	*	*
.	.	16gg/JJ	.	.	.	.	.
*rep	*rep	*	*	*	*	*	*
(<8BB-/L	4.BB-\	8ff'</)	.	8a/	-ci-	-śpio-	.
!	!	!LO:TX:t=P:problem=16\left&colon; global	!	!	!	!	!
8F/	.	(>16ff\LL	.	8g/	-ła	-ny	.
.	.	16ccc\J	.	.	.	.	.
!	!	!LO:TX:t=P:problem=8\left&colon; global	!	!	!	!	!
[>8A/J)	.	8fff'>\J)	.	8f/	i	chłop-	.
*Xrep	*Xrep	*	*	*	*	*	*
=23	=23	=23	=23	=23	=23	=23	=23
*ped	*	*	*	*	*	*	*
(<8C/L 8A/]	4.BB-\	(>16f'</LL	.	4.cc\	bie-	-czy-	.
.	.	16g'</	.	.	.	.	.
8F/	.	16a'</	.	.	.	.	.
.	.	16b-'</	.	.	.	.	.
8A/J)	.	16cc'</	.	.	.	.	.
.	.	16dd'</JJ	.	.	.	.	.
*Xped	*	*	*	*	*	*	*
!	!	!LO:TX:t=P:problem=16\right&colon; global	!	!	!	!	!
(<8C/L	4.BB-\	16ee-'>\LL	.	8f/	-ży,	-na,	.
.	.	16ff'>\	.	.	.	.	.
8G/	.	16gg'>\	.	8r	.	.	.
.	.	16aa'>\	.	.	.	.	.
8F/J)	.	16bb-'>\	.	8f/	na	a-	.
.	.	16ccc'>\JJ	.	.	.	.	.
=24	=24	=24	=24	=24	=24	=24	=24
!	!	!LO:TX:t=P:problem=8\right&colon; global	!	!	!	!	!
(<8BB-/L	4.BB-\	8ddd'>\)	.	4.dd\	mie-	-niel-	.
8F/	.	8r	.	.	.	.	.
8B-/J)	.	8r	.	.	.	.	.
(<8A/L	4.F#X\	4.g/ [>4.b-	.	4dd\	-dzy	-skim	.
8c/	.	.	.	.	.	.	.
8e-/J)	.	.	.	8a\	zie-	snem	.
!!LO:LB:g=original
=25	=25	=25	=25	=25	=25	=25	=25
!	!LO:TX:t=P:4\right:problem	!	!	!	!	!	!
(<8B-/L	4.G\	4.g/ 4.b-]	.	4.b-\	-lo-	ma-	.
8c#X/	.	.	.	.	.	.	.
8en/J)	.	.	.	.	.	.	.
!	!LO:TX:t=P:4\left:problem	!	!	!	!	!	!
4.d/	4.D\ 4.B-\	(<8f/L	.	8f/	-nej	-rzy,	.
.	.	8b-/	.	8r	.	.	.
.	.	8ff/J)	.	8f/	chłop-	a	.
=26	=26	=26	=26	=26	=26	=26	=26
*	*	*^	*	*	*	*	*
!	!	!	!LO:TX:t=P:problem=4\right&colon; global	!	!	!	!	!
(<8FF/L	4ryy	4.f/	4.A^<\ 4.e-	.	8f/	-czy-	kwit-	.
8C/	.	.	.	.	8en/	-na	-nie	.
8F/J)	8ryy	.	.	.	8f/	u-	mu	.
!	!LO:TX:t=P:problem=4\right&colon; global	!	!	!	!	!	!	!
(<8A;>/L	4.F\	4.f;>/	4.e-\	.	8ee-;\	-śpio-	z twa-	.
8B-/	.	.	.	.	8.g/	-ny	-rzy	.
8c/J)	.	.	.	.	.	.	.	.
.	.	.	.	.	16a/	sam	ka-	.
=27	=27	=27	=27	=27	=27	=27	=27	=27
*	*2\right	*	*	*	*	*	*	*
8B-/L	2.BB-\	8f/L	[<4.d\	.	4.b-/	le-	-li-	.
8F/	.	8.dd/	.	.	.	.	.	.
[<8B-/J	.	.	.	.	.	.	.	.
.	.	16cc/Jk	.	.	.	.	.	.
8B-/L]	.	8d/] 8b-/	4ryy	.	8B-/	-ży.	-na.	.
8F/	.	8.r	.	.	8r	.	.	.
8B-/J	.	.	8ryy	.	8r	.	.	.
!	!	!LO:TX:t=P:p[iano]=p.:problem	!	!	!	!	!	!
.	.	16ff/	.	p	.	.	.	.
=28	=28	=28	=28	=28	=28	=28	=28	=28
!	!LO:TX:t=P:problem=w źródle brak początku ligatury	!	!	!	!	!	!	!
8A/L	[<2.BB-\	(>4.cc^</	2.f\	.	2.r	.	.	.
8F/	.	.	.	.	.	.	.	.
8A/J	.	.	.	.	.	.	.	.
8G/L	.	4b-/)	.	.	.	.	.	.
8F/	.	.	.	.	.	.	.	.
8G/J	.	16r	.	.	.	.	.	.
.	.	16ff/	.	.	.	.	.	.
!!LO:LB:g=original
=29	=29	=29	=29	=29	=29	=29	=29	=29
8F/L	2BB-\]	(>4.a^>/	2.f\	.	2.r	.	.	.
8BB-/	.	.	.	.	.	.	.	.
8F/J	.	.	.	.	.	.	.	.
8E-/L	.	8g/)	.	.	.	.	.	.
!	!LO:TX:t=P:problem=4\right&colon; global	!	!	!	!	!	!	!
8BB-/	[<4BB-\	8r	.	.	.	.	.	.
8G/J	.	16r	.	.	.	.	.	.
.	.	16b-/	.	.	.	.	.	.
=30	=30	=30	=30	=30	=30	=30	=30	=30
(<8B-/L	2.BB-\_<	(>8d/L 8f/	2.f\	.	2.r	.	.	.
8F/	.	8b-/	.	.	.	.	.	.
8D/J	.	8dd/J	.	.	.	.	.	.
8E-/L	.	8cc/L	.	.	.	.	.	.
8F/	.	8a/	.	.	.	.	.	.
8A/J)	.	8f/J)	.	.	.	.	.	.
=31	=31	=31	=31	=31	=31	=31	=31	=31
(<8B-/L	2.BB-\]	(>4.dd/	2f\	.	2.r	.	.	.
8F/	.	.	.	.	.	.	.	.
8B-/J)	.	.	.	.	.	.	.	.
(<8D/L	.	4b-/)	.	.	.	.	.	.
8F/	.	.	8ryy	.	.	.	.	.
8B-/J)	.	16r	8ryy	.	.	.	.	.
.	.	16ff/	.	ppp	.	.	.	.
=32	=32	=32	=32	=32	=32	=32	=32	=32
8A/L	[<2.BB-\	(>4.cc^</	2.f\	.	2.r	.	.	.
8F/	.	.	.	.	.	.	.	.
8A/J	.	.	.	.	.	.	.	.
8G/L	.	4b-/)	.	.	.	.	.	.
8BB-/	.	.	.	.	.	.	.	.
8G/J	.	16r	.	.	.	.	.	.
.	.	16ff/	.	.	.	.	.	.
=33	=33	=33	=33	=33	=33	=33	=33	=33
8F/L	2.BB-\]	(>4.dd^>/	2.f\	.	2.r	.	.	.
8BB-/	.	.	.	.	.	.	.	.
8F/J	.	.	.	.	.	.	.	.
8E-/L	.	4a/)	.	.	.	.	.	.
8BB-/	.	.	.	.	.	.	.	.
[<8B-/J	.	16r	.	.	.	.	.	.
.	.	16a/	.	.	.	.	.	.
!!LO:LB:g=original
=34	=34	=34	=34	=34	=34	=34	=34	=34
!	!	!	!LO:TX:t=P:problem=4\right&colon; global	!	!	!	!	!
(<8B-/L]	2.BB-\	(>8f/L	4d\	.	2.r	.	.	.
8F/	.	8b-/	.	.	.	.	.	.
!	!	!	!LO:TX:t=P:problem=8\right&colon; global	!	!	!	!	!
8F#X/J	.	8dd/J	8b-\	.	.	.	.	.
8G/L	.	8g/L 8ee-/	4ryy	.	.	.	.	.
8A-X/	.	8.fn/ 8.dd/	.	.	.	.	.	.
8An/J)	.	.	8ryy	.	.	.	.	.
.	.	16e-/Jk) 16cc/	.	.	.	.	.	.
*	*	*v	*v	*	*	*	*	*
=35	=35	=35	=35	=35	=35	=35	=35
*>A1	*>A1	*>A1	*	*>A1	*	*	*
!!LO:TX:a:t=1ma
!	!LO:TX:t=P:problem=4\right&colon; global	!	!	!	!	!	!
8B-/	4.BB-\	[<4.d/ [>/4.b-	.	4r	.	.	.
(<8B-/L	.	.	.	.	.	.	.
8F/J)	.	.	.	8r	.	.	.
!!mixed beam:problem
!LO:TX:t=P:problem=mixed beam	!	!	!	!	!	!	!
8BB-/L	4.BB-\	4d/] 4b-/]	.	4r	.	.	.
(>8B-\	.	.	.	.	.	.	.
8F\J)	.	8f/	.	8f/	Spo.	.	.
=36:|!	=36:|!	=36:|!	=36:|!	=36:|!	=36:|!	=36:|!	=36:|!
*	*	*^	*	*	*	*	*
*>A2	*>A2	*>A2	*>A2	*	*>A2	*	*	*
!!LO:TX:a:t=2da
!	!LO:TX:t=P:problem=8\right&colon; global	!	!LO:TX:t=P:problem=8\right&colon; global	!	!	!	!	!
8B-/	8BB-\	8b-/L	8d\	.	4r	.	.	.
8r	8ryy	(<16cc/L	8ryy	.	.	.	.	.
.	.	16b-/	.	.	.	.	.	.
!	!	!	!	!	!LO:TX:a:t=un poco piu agitato.	!	!	!
8r	8ryy	16a/	8ryy	.	8r	.	.	.
.	.	16g/JJ)	.	.	.	.	.	.
!LO:TX:t=P:problem=4\right&colon; global	!	!	!	!	!	!	!	!
4f#X>\ 4a>\	4ryy	4dd;>/	4ryy	.	4r;	.	.	.
8r	8ryy	8r	8ryy	.	8d/	Na	.	.
*v	*v	*	*	*	*	*	*	*
*	*v	*v	*	*	*	*	*
=37	=37	=37	=37	=37	=37	=37
*>B	*>B	*	*>B	*	*	*
8r	(<4.d^</ 4.b-/	.	4.b-/	u-	.	.
!!mixed beam:problem
!LO:TX:t=P:problem=mixed beam	!	!	!	!	!	!
(>8GG/L	.	.	.	.	.	.
!LO:TX:t=P:problem=8\right&colon; global	!	!	!	!	!	!
8G\J)	.	.	.	.	.	.
8r	4B-/) 4g/	.	4g/	-stach	.	.
(>8G\L	.	.	.	.	.	.
8d\J)	8c/ 8a/	.	8a/	za-	.	.
=38	=38	=38	=38	=38	=38	=38
8r	((4.d^/ 4.b-/	.	4.b-/	-wi-	.	.
!!mixed beam:problem
!LO:TX:t=P:problem=mixed beam	!	!	!	!	!	!
(>8GG/L	.	.	.	.	.	.
8G\J)	.	.	.	.	.	.
8r	8B-/)) 8g/	.	8g/	-snę,	.	.
(>8G\L	8r	.	8r	.	.	.
8B-\J)	8g/	.	8g/	do	.	.
!!LO:LB:g=original
=39	=39	=39	=39	=39	=39	=39
8r	(<4d^</ 4b-/	.	(>4b-\	pier-	.	.
!LO:TX:t=P:problem=8\right&colon; global	!	!	!	!	!	!
(>8GG\L	.	.	.	.	.	.
8G\J)	8c/ 8a/	.	8a\)	.	.	.
8r	4B-/) 4g/	.	4g/	-si	.	.
!!mixed beam:problem
!LO:TX:t=P:problem=mixed beam	!	!	!	!	!	!
(>8G/L	.	.	.	.	.	.
8d>\J)	8d/ 8a	.	8a/	przy-	.	.
=40	=40	=40	=40	=40	=40	=40
8r	(<4.a^</ 4.cc	.	4.cc\	-ci-	.	.
(>8GG/L	.	.	.	.	.	.
8D/J	.	.	.	.	.	.
8G\L)	8g/) 8b-	.	8b-\	-snę,	.	.
8B-'>\	8r	.	8r	.	.	.
8d'>\J	8g/ 8b-	.	8g/	me	.	.
=41	=41	=41	=41	=41	=41	=41
8g>\L	(>4.b-^>/ 4.ee-/	.	4.ee-^>\	dzie-	.	.
8a>\	.	.	.	.	.	.
8g>\J	.	.	.	.	.	.
8f#X>\L	4.a/ 4.dd/	.	8dd\	-cię...	.	.
8g>\	.	.	8r	.	.	.
8fn>\J	.	.	8a/	kwia-	.	.
=42	=42	=42	=42	=42	=42	=42
(>8e->\L	4.g/ 4.cc/	.	4.cc^>\	-te-	.	.
8f>\)	.	.	.	.	.	.
8e->\J	.	.	.	.	.	.
!!mixed beam:problem
!LO:TX:t=P:problem=mixed beam	!	!	!	!	!	!
(>8e->\L	4g/) 4b-/	.	8b-\	-czku	.	.
8B-/)	.	.	8r	.	.	.
8G/J	8g/	.	8g/	ka-	.	.
=43	=43	=43	=43	=43	=43	=43
*	*^	*	*	*	*	*
*ped	*	*	*	*	*	*	*
!	!	!LO:TX:t=P:problem=4\right&colon; global	!	!	!	!	!
(>8DD/L	2.dd/	4.d\ 4.f#X	sf	(>[<4.dd^>\	-li-	.	.
8AA/	.	.	.	.	.	.	.
8D/J	.	.	.	.	.	.	.
*Xped	*	*	*	*	*	*	*
8F#X\L)	.	4.a\	.	4dd\_>)	.	.	.
8A'>\	.	.	.	.	.	.	.
8d'>\J	.	.	.	16dd\LL]	.	.	.
.	.	.	.	32cc\L	.	.	.
.	.	.	.	32b-\JJJ	.	.	.
!!LO:PB:g=original
=44	=44	=44	=44	=44	=44	=44	=44
2.ryy	4a/	4f#X\	.	4a/	-ny,	.	.
.	8r	8ryy	.	8r	.	.	.
.	4r	4ryy	.	4r	.	.	.
.	8r	8ryy	.	8cc\	mój	.	.
=45	=45	=45	=45	=45	=45	=45	=45
*^	*	*	*	*	*	*	*
2.c/	2.E-\	[>4.cc/	2.g^\	.	(>4.cc\	Skar-	.	.
.	.	4cc/]	.	.	4g/)	-bie	.	.
.	.	8b-/	.	.	8b-/	je-	.	.
=46	=46	=46	=46	=46	=46	=46	=46	=46
!	!LO:TX:t=P:problem=4\right&colon; global	!	!	!	!	!	!	!
4.c/	(<4.E-\	(>4.a/	2f\	.	(<4a/	-dy-	.	.
.	.	.	.	.	8g/)	.	.	.
4.B-/	4D\	4b-/	.	.	8f/	-na	.	.
.	.	.	8ryy	.	8r	.	.	.
!	!LO:TX:t=P:problem=8\right&colon; global	!	!	!	!	!	!	!
.	8BB-\)	8dd/)	8ryy	.	8dd\	na	.	.
=47	=47	=47	=47	=47	=47	=47	=47	=47
*	*	*	*	*	*2\right	*	*	*
!LO:TX:t=P:problem=4\right&colon; global	!	!	!	!	!	!	!	!
4.A\	2.C\	2.cc/	(>4.f\	.	2.cc\	świe-	.	.
!	!	!	!LO:TX:t=P:problem=8\right&colon; global	!	!	!	!	!
4.G/	.	.	8en\L	.	.	.	.	.
.	.	.	8f\	.	.	.	.	.
.	.	.	8b-\J)	.	.	.	.	.
*	*	*v	*v	*	*	*	*	*
=48	=48	=48	=48	=48	=48	=48	=48
4F/	4F\	(8f/L 8a/	.	4f/	-cie!"	.	.
.	.	8cc/	.	.	.	.	.
8r	8ryy	8ff'/J)	.	8r	.	.	.
!	!	!	!	!LO:TX:a:t=piu moſso.	!	!	!
4r	4ryy	4r	.	4r	.	.	.
8r	8ryy	8r	.	8f/	Stru-	.	.
*v	*v	*	*	*	*	*	*
=49	=49	=49	=49	=49	=49	=49
8r	8r	.	4.g-X/^<	-dzo-	.	.
8B-\L 8c\	8e-'</L 8g-X/	.	.	.	.	.
8B-\J 8c\	8e-'</J 8g-/	.	.	.	.	.
8A\ 8c	8e-'</ 8f	.	8f/	-na,	.	.
8r	8r	.	8r	.	.	.
8r	8r	.	8f/	schy-	.	.
=50	=50	=50	=50	=50	=50	=50
8r	8r	.	4.b-\^>	-lo-	.	.
8d-X'>\L 8e-\	8g-X'</L 8b-/	.	.	.	.	.
8d-'>\J 8e-\	8g-'</J 8b-/	.	.	.	.	.
8c'>\ 8e-\	8g-'</ 8a/	.	8a\	-na	.	.
8r	8r	.	8r	.	.	.
8r	8r	.	8cc\	przy-	.	.
!!LO:LB:g=original
=51	=51	=51	=51	=51	=51	=51
*	*^	*	*	*	*	*
!LO:TX:t=P:problem=4\left&colon; global	!	!LO:TX:t=P:problem=4\right&colon; global	!	!	!	!	!
4.e-\	4.cc/	4.f\	.	8cc\	-tu-	.	.
.	.	.	.	8b-\	-la	.	.
.	.	.	.	8a\	do	.	.
(>8d-X\L	(<8b-/L	4.f\	.	8b-\	ło-	.	.
8c\	8cc/	.	.	8cc\	-na	.	.
!	!	!	!	!LO:SIC:v:s=8dd-	!	!	!
8B-\J)	8dd-X/J)	.	.	8dd\	i	.	.
*	*v	*v	*	*	*	*	*
=52	=52	=52	=52	=52	=52	=52
!	!	!	!LO:TX:a:t=ancora piu moſso.	!	!	!
8r	8r	.	(>4.cc;>\	pie-	.	.
!LO:TX:t=P:problem=8\left&colon; global	!	!	!	!	!	!
8f\L	8a'</L 8cc/	.	.	.	.	.
8f\J	8a'</J 8ff/	.	.	.	.	.
4r;>	4r;>	.	8f/)	-ści	.	.
.	.	.	8r	.	.	.
8r	8r	.	8f/	Ca-	.	.
=53	=53	=53	=53	=53	=53	=53
!	!	!LO:HP:a:t=cres.	!	!	!	!LO:HP:a:t=cres&colon;
8r	8r	<	8a-X/	-łu-	.	<
!LO:TX:t=P:problem=8\right&colon; global	!	!	!	!	!	!
8c'\L	8f'</L 8g	.	8g/	-je...	.	.
8Bn'\J	8f'</J 8g	.	8r	.	.	.
8d'\	8f'</ 8g	.	4r	.	.	.
8r	8r	.	.	.	.	.
8r	8r	.	8g/	i	.	.
=54	=54	=54	=54	=54	=54	=54
8r	8r	.	4.dd^>\	bla-	.	.
8f'>\L	8g'/L 8dd/	.	.	.	.	.
8f'>\J	8g'/J 8dd/	.	.	.	.	.
8e-'>\	8g'/ 8cc	.	8cc\	-da	.	.
8r	8r	f	8r	.	.	.
8CC^</ 8C	8c^</	.	8c/	z wy-	.	.
!!LO:LB:g=original
=55	=55	=55	=55	=55	=55	=55
8C/L	8c/L^<	.	8c^</	-krzy-	.	.
8E-/	8e-/^<	.	8e-^</	-kiem	.	.
8F#X/J	8f#X/J^<	.	8f#X^</	u-	.	.
!LO:TX:t=P:problem=8\right&colon; global	!	!	!	!	!	!
8A\L	8a/L	.	8a^</	-pa-	.	.
8c\	8cc/	.	8cc^>\	-da	.	.
8d\J	8dd/J	.	8dd^>\	bo-	.	.
=56	=56	=56	=56	=56	=56	=56
!	!	!	!	!	!	!LO:HP:a
8e-\	8ee-/	.	[>2.ee-^>\	-le-	.	>
16r	16r	.	.	.	.	.
16F#X\ 16A\ 16c\ 16e-\	16a/ 16cc/ 16ee-/ 16aa/	.	.	.	.	.
[<8F#\ [<\8A [>\8c [>\8e-^^>	[<8a^^>/ [>/8cc [>/8ee- [>/8aa	.	.	.	.	.
!LO:TX:t=P:problem=4\left&colon; global	!	!	!	!	!	!
4.F#\_< 4.A\_< 4.c\_> 4.e-\_>	4.a/_< 4.cc/_> 4.ee-/_> 4.aa/_>	.	.	.	.	.
=57	=57	=57	=57	=57	=57	=57
4F#\] 4A\] 4c\] 4e-\]	2.a/_< 2.cc/_< 2.ee-/_> 2.aa/_>	.	4.ee-\]	.	.	.
8r	.	.	.	.	.	.
4r	.	.	4cc\	-ści.	.	]
8r	.	.	8r	.	.	.
=58	=58	=58	=58	=58	=58	=58
!	!	!LO:DY:b=2:rj	!	!	!	!
!	!	!	!LO:TX:a:t=un poco piu lento.	!	!	!
*ped	*	*	*	*	*	*
(>8FF/	2.a/] 2.cc/] 2.ee-/] 2.aa/]	pp	2.r	.	.	.
!LO:TX:b:t=tranquillo.	!	!	!	!	!	!
!LO:TX:a:t=ad libit	!	!	!	!	!	!
16C/LL	.	.	.	.	.	.
16F/	.	.	.	.	.	.
16A/	.	.	.	.	.	.
16c/JJ	.	.	.	.	.	.
!LO:TX:t=P:problem=16\right&colon; global	!	!	!	!	!	!
16f>\LL	.	.	.	.	.	.
16a>\	.	.	.	.	.	.
16cc>\	.	.	.	.	.	.
16ff>\	.	.	.	.	.	.
16aa>\	.	.	.	.	.	.
16ccc>\JJ	.	.	.	.	.	.
=59	=59	=59	=59	=59	=59	=59
2.fff>\)	2.ryy	.	4r	.	.	.
.	.	.	8r	.	.	.
.	.	.	4r	.	.	.
.	.	.	8f/	Dzie-	.	.
*clefG2	*	*	*	*	*	*
!!LO:LB:g=original
=60	=60	=60	=60	=60	=60	=60
*	*8va	*	*	*	*	*
*^	*	*	*	*	*	*
!!mixed beam:problem
!	!	!LO:TX:t=P:ppp=ppp.:problem	!	!	!	!	!
!	!LO:TX:t=P:problem=4\right&colon; global	!LO:TX:t=P:problem=mixed beam	!	!	!	!	!
(<8d/L	4.B-\	32fff\LLL	ppp	4.b-/	-ci-	.	.
.	.	32ff/	.	.	.	.	.
.	.	32fff\	.	.	.	.	.
.	.	32ff/	.	.	.	.	.
8b-^</	.	32fff\	.	.	.	.	.
.	.	32ff/	.	.	.	.	.
.	.	32fff\	.	.	.	.	.
.	.	32ff/	.	.	.	.	.
8f/J)	.	32fff\	.	.	.	.	.
.	.	32ff/	.	.	.	.	.
.	.	32fff\	.	.	.	.	.
.	.	32ff/JJJ	.	.	.	.	.
!	!	!LO:TX:t=P:problem=8\left	!	!	!	!	!
(<8d/L	4.B-\	8bb-\ 8bbb-	.	4a/	na	.	.
*	*	*X8va	*	*	*	*	*
8b-^>/	.	8r	.	.	.	.	.
8f/J)	.	8r	.	8d/	w la-	.	.
*v	*v	*	*	*	*	*	*
=61	=61	=61	=61	=61	=61	=61
*	*8va	*	*	*	*	*
*^	*	*	*	*	*	*
!!mixed beam:problem
!	!	!LO:TX:t=P:problem=mixed beam	!	!	!	!	!
(<8d/L	4.B-\	32ddd\LLL	.	4.g/	-zu-	.	.
.	.	32dd/	.	.	.	.	.
.	.	32ddd\	.	.	.	.	.
.	.	32dd/	.	.	.	.	.
8b-^</	.	32ddd\	.	.	.	.	.
.	.	32dd/	.	.	.	.	.
.	.	32ddd\	.	.	.	.	.
.	.	32dd/	.	.	.	.	.
8f/J)	.	32ddd\	.	.	.	.	.
.	.	32dd/	.	.	.	.	.
.	.	32ddd\	.	.	.	.	.
.	.	32dd/JJJ	.	.	.	.	.
!	!	!LO:TX:t=P:problem=8\right&colon; global	!	!	!	!	!
(<8d/L	4.B-\	8ff\ 8fff	.	8f/	-ry	.	.
*	*	*X8va	*	*	*	*	*
8b-/	.	8r	.	8r	.	.	.
8f/J)	.	8r	.	8f/	już	.	.
*v	*v	*	*	*	*	*	*
=62	=62	=62	=62	=62	=62	=62
*	*8va	*	*	*	*	*
*^	*	*	*	*	*	*
!!mixed beam:problem
!	!	!LO:TX:t=P:problem=mixed beam	!	!	!	!	!
(<8e-/L	4.B-\	32fff\LLL	.	8f/	pły-	.	.
.	.	32ff/	.	.	.	.	.
.	.	32fff\	.	.	.	.	.
.	.	32ff/	.	.	.	.	.
8cc/	.	32fff\	.	8en/	-nie	.	.
.	.	32ff/	.	.	.	.	.
.	.	32fff\	.	.	.	.	.
.	.	32ff/	.	.	.	.	.
8f/J)	.	32fff\	.	8f/	przez	.	.
.	.	32ff/	.	.	.	.	.
.	.	32fff\	.	.	.	.	.
.	.	32ff/JJJ	.	.	.	.	.
(<8e-/L	4.B-\	8ccc\	.	8a/	chmu-	.	.
*	*	*X8va	*	*	*	*	*
8b-/	.	8r	.	8g/	-ry	.	.
8f/J)	.	8r	.	8f/	we-	.	.
*v	*v	*	*	*	*	*	*
=63	=63	=63	=63	=63	=63	=63
*	*8va	*	*	*	*	*
*^	*	*	*	*	*	*
!!mixed beam:problem
!	!	!LO:TX:t=P:problem=mixed beam	!	!	!	!	!
(<8e-/L	4.B-\	32ccc\LLL	.	(>4.cc\	-so-	.	.
.	.	32cc/	.	.	.	.	.
.	.	32ccc\	.	.	.	.	.
.	.	32cc/	.	.	.	.	.
8a/	.	32ccc\	.	.	.	.	.
.	.	32cc/	.	.	.	.	.
.	.	32ccc\	.	.	.	.	.
.	.	32cc/	.	.	.	.	.
8f/J)	.	32ccc\	.	.	.	.	.
.	.	32cc/	.	.	.	.	.
.	.	32ccc\	.	.	.	.	.
.	.	32cc/JJJ	.	.	.	.	.
8e-/L	4.B-\	8ff/	.	8f/)	-ła,	.	.
*	*	*X8va	*	*	*	*	*
8g/	.	8r	.	8r	.	.	.
8f/J	.	8r	.	8f/	Żar	.	.
*clefF4	*	*	*	*	*	*	*
!!LO:LB:g=original
=64	=64	=64	=64	=64	=64	=64	=64
!	!	!LO:TX:t=P:problem=4\right&colon; global	!	!	!	!	!
!	!LO:TX:t=P:problem=4\right&colon; global	!LO:TX:b:t=ralent	!	!	!	!	!
8F/L	4.D\	4.b-\ (>4.bb-	.	(>4.dd\	głów-	.	.
8B-/	.	.	.	.	.	.	.
8d/J	.	.	.	.	.	.	.
8G/L	4.E-\	4a\ 4aa	.	4cc\	-kę	.	.
8B-/	.	.	.	.	.	.	.
!	!	!LO:TX:t=P:problem=8\right&colon; global	!	!	!	!	!
8c/J	.	8ff\	.	8a/	prze-	.	.
=65	=65	=65	=65	=65	=65	=65	=65
*	*^	*	*	*	*	*	*
!	!LO:TX:t=P:problem=8\right&colon; global	!LO:TX:t=P:problem=4\right&colon; global	!	!	!	!	!	!
(>4.c#X/	8B-\L	4.En\	4.g\ 4.gg	.	4.b-/	-po-	.	.
.	8A\	.	.	.	.	.	.	.
.	8G\J	.	.	.	.	.	.	.
(<8d/L)	4.F\	4rGGyy	8b-\ 8dd)	.	8f/)	-lił!..	.	.
8B-/	.	.	8r	.	8r	.	.	.
8d/J)	.	8rGGyy	8f/	.	8f/	i	.	.
*v	*v	*v	*	*	*	*	*	*
=66	=66	=66	=66	=66	=66	=66
4.F\ 4.c	4.a\ 4.ee-	.	8.f/	nie-	.	.
.	.	.	16en/	-bu	.	.
.	.	.	8f/	o-	.	.
4.FF/ 4.C	4.A^</ 4.f	.	8a/	-ca-	.	.
.	.	.	16g/	-lił	.	.
.	.	.	16r	.	.	.
.	.	.	8f/	a-	.	.
=67	=67	=67	=67	=67	=67	=67
!	!LO:TX:a:t=a tempo 1mo	!	!LO:TX:a:t=a tempo 1m	!	!	!LO:DY:a:rj
*ped	*	*	*	*	*	*
!	!LO:TX:t=P:pp[ianissimo]=pp.:problem	!	!	!	!	!
[<4.BBB-/	8r	pp	(>[>2.ff\	-nio-	.	pp
.	8B-'</L 8d	.	.	.	.	.
.	8d'</J 8f	.	.	.	.	.
4BBB-/]	8d'</L 8b-	.	.	.	.	.
.	8f'</ 8dd	.	.	.	.	.
8r	8b-'</J 8ff	.	.	.	.	.
=68	=68	=68	=68	=68	=68	=68
!	!LO:TX:t=P:problem=8\left&colon; global	!	!	!	!	!
2.r	8dd'>\L 8bb-\	.	4.ff\_<	.	.	.
.	8ff'>\ 8ddd\	.	.	.	.	.
*	*8va	*	*	*	*	*
.	8bb-\ 8fff\	.	.	.	.	.
.	8ddd\ 8bbb-\	.	4ff\]	.	.	.
.	8fff\J 8dddd\	.	.	.	.	.
*	*X8va	*	*	*	*	*
.	8r	.	8dd\)	.	.	.
*Xped	*	*	*	*	*	*
=69	=69	=69	=69	=69	=69	=69
!	!	!	!LO:TX:t=P:problem=4\left&colon; global	!	!	!
2.ryy	2.r	.	4b-\	-ła.	.	.
.	.	.	8r	.	.	.
.	.	.	4r	.	.	.
.	.	.	8r	.	.	.
*clefG2	*	*	*	*	*	*
!!LO:LB:g=original
=70	=70	=70	=70	=70	=70	=70
4B-/ 4f 4b-	4ff\ 4bb- 4ddd	.	2.r	.	.	.
8r	8r	.	.	.	.	.
4r	4r	.	.	.	.	.
8r	8r	.	.	.	.	.
*clefF4	*	*	*	*	*	*
=71	=71	=71	=71	=71	=71	=71
*^	*^	*	*	*	*	*
!LO:TX:b:t=12go Maja 1862.	!	!	!	!	!	!	!	!
2.F/	2.BBB-\ 2.BB-	2.d;>/	2.B-\	.	2.r	.	.	.
*v	*v	*	*	*	*	*	*	*
*	*v	*v	*	*	*	*	*
==	==	==	==	==	==	==
*-	*-	*-	*-	*-	*-	*-
!!!system-decoration: [{g1,g2}]
!!!RDF**kern: > = above
!!!RDF**kern: < = below
!!!RDF**kern: N = linked
!!!RDF**dynam: < = "cres.", fontstyle="normal"
!!!ENC: Marcin Jachim
!!!END: 2021-08-23
!!!EED: Jędrzej Mróz
!!!ESR: 2021-10-06
